client/src/assets/images/global/users.svg

<svg width="24px" height="24px" viewBox="0 0 24 24" version="1.1" xmlns="http://www.w3.org/2000/svg" xmlns:xlink="http://www.w3.org/1999/xlink">
  <g id="Page-1" stroke="none" stroke-width="1" fill="none" fill-rule="evenodd">
    <g id="Artboard-4" transform="translate(-92.000000, -863.000000)">
      <g id="342" transform="translate(92.000000, 863.000000)">
        <path d="M7,21 C7,21 7,17 11,17 C15,17 14.9937515,17 19,17 C23.0062485,17 23.0062485,21 23.0062485,21" id="Path-41" stroke="#000000" stroke-width="2" stroke-linecap="round" stroke-linejoin="round"/>
        <path d="M8.27455269,11.9477557 C5.85692935,11.5963698 4,9.51503944 4,7 C4,4.23857625 6.23857625,2 9,2 C10.373942,2 11.6184509,2.55416948 12.5221996,3.45118158 C11.8469348,3.70680858 11.2215328,4.06387931 10.664592,4.50379553 C10.1883045,4.18555118 9.61582114,4 9,4 C7.34314575,4 6,5.34314575 6,7 C6,8.3069749 6.83577432,9.41874424 8.00202365,9.83000873 C8.00067709,9.88650926 8,9.94317556 8,10 C8,10.6759052 8.09579644,11.329436 8.27455269,11.9477557 Z M8.67363116,13 L5,13 C2.85717375,13 1.39436214,13.9752077 0.605572809,15.5527864 C0.148670182,16.4665917 -7.10542736e-14,17.3586127 -7.10542736e-14,18 C-7.10542736e-14,18.5522847 0.44771525,19 1,19 C1.55228475,19 2,18.5522847 2,18 C2,17.9269061 2.01176795,17.7621548 2.04889392,17.539399 C2.11167338,17.1627222 2.22417415,16.7877197 2.39442719,16.4472136 C2.85563786,15.5247923 3.64282625,15 5,15 L10.1010173,15 C9.51513298,14.4258795 9.02972955,13.7496048 8.67363116,13 Z" id="Combined-Shape" fill="#000000" fill-rule="nonzero"/>
        <circle id="Oval-40" stroke="#000000" stroke-width="2" cx="15" cy="10" r="4"/>
      </g>
    </g>
  </g>
</svg>

<svg xmlns="http://www.w3.org/2000/svg" viewBox="0 0 24 24">
  <defs/>
  <g fill="none" fill-rule="evenodd">
    <path stroke="#000" stroke-linecap="round" stroke-linejoin="round" stroke-width="2" d="M7 21s0-4 4-4h8c4 0 4 4 4 4"/>
    <path fill="#000" fill-rule="nonzero" d="M8.3 12a5 5 0 114.2-8.5 7 7 0 00-1.8 1A3 3 0 108 9.8a7.1 7.1 0 00.3 2.1zm.4 1H5c-2.1 0-3.6 1-4.4 2.6-.5.9-.6 1.8-.6 2.4a1 1 0 002 0v-.5l.4-1c.5-1 1.2-1.5 2.6-1.5h5.1a7 7 0 01-1.4-2z"/>
    <circle cx="15" cy="10" r="4" stroke="#000" stroke-width="2"/>
  </g>
</svg>
